power-plug-off.svg

<svg fill="currentColor" viewBox="0 0 24 24"><path d="m20.84 22.73-5.53-5.53-.81.8v3h-5v-3L6 14.5V9c0-.3.1-.59.25-.86L1.11 3l1.28-1.27 19.72 19.73zM18 14.5V9c0-1-1-2-2-2V3h-2v4h-3.8l7.65 7.65zM10 3H8v1.8l2 2z"/></svg>

<svg  viewBox="0 0 24 24" fill="currentColor"><path  d="M20.84 22.73L15.31 17.2L14.5 18V21H9.5V18L6 14.5V9C6 8.7 6.1 8.41 6.25 8.14L1.11 3L2.39 1.73L22.11 21.46L20.84 22.73M18 14.5V9C18 8 17 7 16 7V3H14V7H10.2L17.85 14.65L18 14.5M10 3H8V4.8L10 6.8V3Z"/></svg>
